assets/svg/fa-times-circle.svg

<svg xmlns="http://www.w3.org/2000/svg" width="100%" height="100%" viewBox="0 0 512 512"><path fill="currentColor" d="M256 8c137 0 248 111 248 248s-111 248-248 248-248-111-248-248 111-248 248-248zM256 456c110.5 0 200-89.5 200-200s-89.5-200-200-200-200 89.5-200 200 89.5 200 200 200zM357.8 193.8l-62.2 62.2 62.2 62.2c4.7 4.7 4.7 12.3 0 17l-22.6 22.6c-4.7 4.7-12.3 4.7-17 0l-62.2-62.2-62.2 62.2c-4.7 4.7-12.3 4.7-17 0l-22.6-22.6c-4.7-4.7-4.7-12.3 0-17l62.2-62.2-62.2-62.2c-4.7-4.7-4.7-12.3 0-17l22.6-22.6c4.7-4.7 12.3-4.7 17 0l62.2 62.2 62.2-62.2c4.7-4.7 12.3-4.7 17 0l22.6 22.6c4.7 4.7 4.7 12.3 0 17z" /></svg>

<svg xmlns="http://www.w3.org/2000/svg" width="100%" height="100%" viewBox="0 0 512 512"><path fill="currentColor" d="M256 8C119 8 8 119 8 256S119 504 256 504 504 393 504 256 393 8 256 8zM256 456C145.5 456 56 366.5 56 256S145.5 56 256 56 456 145.5 456 256 366.5 456 256 456zM357.8 193.8L295.6 256 357.8 318.2C362.5 322.9 362.5 330.5 357.8 335.2L335.2 357.8C330.5 362.5 322.9 362.5 318.2 357.8L256 295.6 193.8 357.8C189.1 362.5 181.5 362.5 176.8 357.8L154.2 335.2C149.5 330.5 149.5 322.9 154.2 318.2L216.4 256 154.2 193.8C149.5 189.1 149.5 181.5 154.2 176.8L176.8 154.2C181.5 149.5 189.1 149.5 193.8 154.2L256 216.4 318.2 154.2C322.9 149.5 330.5 149.5 335.2 154.2L357.8 176.8C362.5 181.5 362.5 189.1 357.8 193.8z" /></svg>
